collectives/static/img/icon/ionicon/md-information-circle-outline.svg

<svg enable-background="new 0 0 512 512" viewBox="0 0 512 512" xmlns="http://www.w3.org/2000/svg"><path d="m256 90c44.3 0 86 17.3 117.4 48.6 31.3 31.4 48.6 73.1 48.6 117.4s-17.3 86-48.6 117.4c-31.4 31.3-73.1 48.6-117.4 48.6s-86-17.3-117.4-48.6c-31.3-31.4-48.6-73.1-48.6-117.4s17.3-86 48.6-117.4c31.4-31.3 73.1-48.6 117.4-48.6m0-42c-114.9 0-208 93.1-208 208s93.1 208 208 208 208-93.1 208-208-93.1-208-208-208z"/><path d="m277 360h-42v-125h42zm0-166h-42v-42h42z"/></svg>

<?xml version="1.0" encoding="utf-8"?>
<!-- Generator: Adobe Illustrator 22.0.1, SVG Export Plug-In . SVG Version: 6.00 Build 0)  -->
<svg version="1.1" id="Layer_1" xmlns="http://www.w3.org/2000/svg" xmlns:xlink="http://www.w3.org/1999/xlink" x="0px" y="0px"
	 viewBox="0 0 512 512" style="enable-background:new 0 0 512 512;" xml:space="preserve">
<path d="M256,90c44.3,0,86,17.3,117.4,48.6C404.7,170,422,211.7,422,256s-17.3,86-48.6,117.4C342,404.7,300.3,422,256,422
	s-86-17.3-117.4-48.6C107.3,342,90,300.3,90,256s17.3-86,48.6-117.4C170,107.3,211.7,90,256,90 M256,48C141.1,48,48,141.1,48,256
	s93.1,208,208,208s208-93.1,208-208S370.9,48,256,48L256,48z"/>
<g>
	<path d="M277,360h-42V235h42V360z M277,194h-42v-42h42V194z"/>
</g>
</svg>
